X: 3961
T: Blackhaired Lass, The
R: reel
M: 4/4
K: Amixolydian
c2AB cdec|d2gd BGBd|cBAB cdec|dfec A3B|
c2AB cdec|d2gd BGBd|cBAB cdec|dfec A3B||
cdef g2eg|f2df gfed|cdef geag|fdec A3B|
cdef g2eg|f2df g2fg|afge fdec|dfec A3B||

